X:1
T:Gratias agimus tibi
T:Hassler
T:Gratias agimus tibi
C:Hassler
Z:Alleluia verse for Corpus Christi
%%score [ 1 2 3 4 ]
L:1/8
Q:1/2=88
M:4/2
K:Bb
V:1 treble nm="SOPRANO" snm="S."
V:2 treble nm="ALTO" snm="A."
V:3 treble-8 transpose=-12 nm="TENOR" snm="T."
V:4 bass nm="BASS" snm="B."
V:1
"^We give thee thanks, Lord God,for all thy benefits,who livest and reignest, one God,for ever and ever. Amen." z8 G8- | %1
w: Gra-|
 G4 G4 G8 | G12 G4 | ^F8 G8 | A8 B6 B2 | A8 G8- | G8 ^F8- | F8 z8 | z4 G4 G4 G4 | %9
w: * ti- as|a- gi-|mus ti-|bi, Do- mi-|ne De-|* us,|_|pro u- ni-|
 (c2 BA G4) A4 B4- | B4 B4 A6 A2 | G4 A6 G2 G4- | G4 ^F4 G8 | z8 z4 z2 G2 | _B4 A2 G2 ^F4 G2 =B2 | %15
w: ver- * * * sis be-|* ne- fi- ci-|is tu- * *|* * is,|qui|vi- vis et re- gnas, qui|
 c4 A2 A2 _B4 G4 | A8 G4 G4 | A6 A2 B4 c4- | c2 B2 B8 A4 | B4 A8 =B4 | (c2 B2 A2 G2 F4) A4- | %21
w: vi- vis et re- gnas,|De- us, per|o- mni- a sae-|* * * cu-|la sae- cu-|lo- * * * * rum.|
 A4 (G8 ^F4) ||[M:3/2] G8 _B4 | A6 A2 A4 | B6 B2 G4 | A6 B2 G4 | B8 A4 | B8 B4 | A6 A2 =B4 | %29
w: _ A- *|men. Per|o- mni- a|sae- cu- la|sae- cu- lo-|rum. A-|men. Per|o- mni- a|
 c6 c2 A4 | _B4 A4 G4 | G8 ^F4 | G8 _B4 | A6 A2 =B4 | c6 c2 A4 | _B4 A4 G4 | G8 ^F4 || %37
w: sae- cu- la|sae- cu- lo-|rum. A-|men. Per|o- mni- a|sae- cu- la|sae- cu- lo-|rum. A-|
[M:4/2] G4 d2 c2 B2 A2 G2 A2 | B2 A2 G2 F2 E2 C2 c4 | =B16 |] %40
w: men. A- * * * * *||men.|
V:2
 D12 D4 | D8 E8- | (E4 D8) C4 | D8 =E8 | F4 F8 F4 | F8 _E2 D2 D4- | D4 C4 D8 | z8 z4 D4 | %8
w: Gra- ti-|as a-|* * gi-|mus ti-|bi, Do- mi-|ne De- * *|* * us,|pro|
 D4 D4 _E8 | =E8 (F2 _E2 D2 =E2 | F4) F4 (F2 C2 F4-) | F2 F2 _E4 D8 | D8 z4 D4 | %13
w: u- ni- ver-|sis be- * * *|* ne- fi- * *|* ci- is tu-|is, qui|
 E4 D2 C2 =B,4 C2 E2 | F4 E2 D2 C4 D2 G2 | G4 F2 F2 F4 =E4 | (F2 C2 F4) =E4 E4 | F6 F2 G8 | %18
w: vi- vis et re- gnas, qui|vi- vis et re- gnas, qui|vi- vis et re- gnas,|De- * * us, per|o- mni- a|
 F12 F4 | D4 F8 F4 | G4 E4 D8- | D16 ||[M:3/2] D8 G4 | ^F6 F2 F4 | G6 G2 =E4 | =F4 F4 _E4 | F4 F8 | %27
w: sae- cu-|la sae- cu-|lo- rum. A-||men. Per|o- mni- a|sae- cu- la|sae- cu- lo-|rum. A-|
 D8 F4 | F6 F2 F4 | G6 G2 F4 | F4 F4 D4 | E4 D8 | D8 G4 | ^F6 F2 G4 | G6 G2 =F4 | F4 F4 D4 | %36
w: men. Per|o- mni- a|sae- cu- la|sae- cu- lo-|rum. A-|men. Per|o- mni- a|sae- cu- la|sae- cu- lo-|
 C4 D8 ||[M:4/2] D8 G,2 A,2 B,2 C2 | D4 E2 F2 G8 | G16 |] %40
w: rum. A-|men. A- * * *||men.|
V:3
 =B12 B4 | =B8 c6 _BA | G2 A2 B8 G4 | A8 c8 | c8 d6 d2 | (c2 A2 d4) (B6 A2 | G8) A4 A4 | %7
w: Gra- ti-|as a- * *|* * * gi-|mus ti-|bi, Do- mi-|ne _ _ De- *|* us, pro|
 A4 A4 (d2 cB A4) | =B4 B4 (c6 _BA | G4) c4 F4 f4 | d4 d4 c6 c2 | c4 c6 B2 B2 AG | A8 G4 B4 | %13
w: u- ni- ver- * * *|sis pro u- * *|* ni- ver- sis|be- ne- fi- ci-|is tu- * * * *|* is, qui|
 B4 A2 G2 F4 G2 c2 | d4 c2 B2 A4 G2 d2 | e4 c2 c2 d4 c4 | c8 c4 c4 | c6 c2 _e8 | (d8 c6) c2 | %19
w: vi- vis et re- gnas, qui|vi- vis et re- gnas, qui|vi- vis et re- gnas,|De- us, per|o- mni- a|sae- * cu-|
 B4 c8 d4 | (e2 d2 c2 B2 A4) F4 | (B8 A8) ||[M:3/2] =B8 d4 | d6 d2 d4 | d6 d2 c4 | c4 d4 _B4 | %26
w: la sae- cu-|lo- * * * * rum.|A- *|men. Per|o- mni- a|sae- cu- la|sae- cu- lo-|
 d4 c8 | B8 d4 | c6 c2 d4 | e6 e2 c4 | d4 c4 =B4 | c4 A8 | =B8 d4 | d6 d2 d4 | e6 e2 c4 | %35
w: rum. A-|men. Per|o- mni- a|sae- cu- la|sae- cu- lo-|rum. A-|men. Per|o- mni- a|sae- cu- la|
 d4 c4 _B4 | G4 A8 ||[M:4/2] B4 G2 A2 B2 c2 d2 c2 | B4 B4 e8 | d16 |] %40
w: sae- cu- lo-|rum. A-|men. A- * * * * *|* men. A-|men.|
V:4
 G,12 G,4 | G,8 C,8- | (C,4 D,4 E,6) E,2 | D,8 C,8 | F,8 B,,6 B,,2 | F,8 (G,6 F,2 | E,8) D,8 | %7
w: Gra- ti-|as a-|* * * gi-|mus ti-|bi, Do- mi-|ne De- *|* us.|
 z4 D,4 D,4 D,4 | G,8 C,8- | C,8 z4 B,,4- | B,,4 B,,4 F,6 F,2 | C,8 D,8- | D,8 G,4 G,4 | %13
w: pro u- ni-|ver- sis|_ be-|* ne- fi- ci-|is tu-|* is, qui|
 G,4 F,2 E,2 D,4 C,4 | z8 z4 z2 G,2 | C,4 F,2 F,2 B,,4 C,4 | F,8 C,4 C,4 | F,6 F,2 (_E,3 D, C,4) | %18
w: vi- vis et re- gnas,|qui|vi- vis et re- gnas,|De- us, per|o- mni- a _ _|
 (D,6 E,2 F,4) F,4 | B,,4 F,8 D,4 | C,8 D,8 | (B,,6 C,2 D,8) ||[M:3/2] G,8 G,4 | D,6 D,2 D,4 | %24
w: sae- * * cu-|la sae- cu-|lo- rum.|A- * *|men. Per|o- mni- a|
 G,6 G,2 C,4 | F,4 D,4 _E,4 | B,,4 F,8 | B,,8 B,,4 | F,6 F,2 D,4 | C,6 C,2 F,4 | B,4 F,4 G,4 | %31
w: sae- cu- la|sae- cu- lo-|rum. A-|men. Per|o- mni- a|sae- cu- la|sae- cu- lo-|
 C,4 D,8 | G,8 G,4 | D,6 D,2 G,4 | C,6 C,2 F,4 | B,4 F,4 G,4 | E,4 D,8 || %37
w: rum. A-|men. Per|o- mni- a|sae- cu- la|sae- cu- lo-|rum. A-|
[M:4/2] G,4 B,2 C2 D2 C2 B,2 A,2 | G,2 F,2 E,2 D,2 C,8 | G,16 |] %40
w: men. A- * * * * *||men.|

